sprites/streets-v8/_svg/bakery-15.svg

<svg viewBox="-4 -4 23 23" width="23" height="23" data-reactid=".0.1.1.$bakery-15=1svg11.0.0"><rect x="-3" y="-3" rx="10.5" ry="10.5" width="21" height="21" stroke="#fff" style="stroke-linejoin:round;stroke-miterlimit:4px;" fill="#fff" stroke-width="2" data-reactid=".0.1.1.$bakery-15=1svg11.0.0.0"></rect><rect x="-3" y="-3" width="21" height="21" rx="10.5" ry="10.5" fill="#7f7874" data-reactid=".0.1.1.$bakery-15=1svg11.0.0.1"></rect><path fill="#fff" d="M 5.2941176,4.3823529 6,9.5 c 0,0 0,1 1,1 l 1,0 c 1,0 1,-1 1,-1 L 9.7058824,4.3823529 C 9.7058824,3 7.5,3 7.5,3 7.5,3 5.2909892,3 5.2941176,4.3823529 Z M 3.5,5 C 2,5 2,6 2,6 l 1,4 1.5,0 C 5.2550138,10 5.2941176,9.2352941 5.2941176,9.2352941 L 4.5,5 Z m -2,2.5 C 1.5,7.5 0.88235294,7.4705882 0.44117647,7.9117647 0,8.3529412 0,8.7941176 0,8.7941176 L 0,11 0.88235294,11 C 2,11 2,10 2,10 Z" data-reactid=".0.1.1.$bakery-15=1svg11.0.0.3:$bakery-15=1svg-0-fill"></path><path fill="#fff" d="M 11.5,5 C 13,5 13,6 13,6 l -1,4 -1.5,0 C 9.744986,10 9.705882,9.235294 9.705882,9.235294 L 10.5,5 Z m 2,2.5 c 0,0 0.617647,-0.02941 1.058823,0.411765 C 15,8.352941 15,8.794118 15,8.794118 L 15,11 14.117647,11 C 13,11 13,10 13,10 Z" data-reactid=".0.1.1.$bakery-15=1svg11.0.0.3:$bakery-15=1svg-1-fill"></path></svg>

<?xml version="1.0" encoding="utf-8"?>
<!-- Generator: Adobe Illustrator 17.1.0, SVG Export Plug-In . SVG Version: 6.00 Build 0)  -->
<!DOCTYPE svg PUBLIC "-//W3C//DTD SVG 1.1//EN" "http://www.w3.org/Graphics/SVG/1.1/DTD/svg11.dtd">
<svg version="1.1"
	 id="svg2" xmlns:svg="http://www.w3.org/2000/svg" xmlns:cc="http://creativecommons.org/ns#" xmlns:dc="http://purl.org/dc/elements/1.1/" xmlns:rdf="http://www.w3.org/1999/02/22-rdf-syntax-ns#"
	 xmlns="http://www.w3.org/2000/svg" xmlns:xlink="http://www.w3.org/1999/xlink" x="0px" y="0px" width="23px" height="23px"
	 viewBox="0 0 23 23" enable-background="new 0 0 23 23" xml:space="preserve">
<ellipse id="ellipse4" fill="#FFFFFF" cx="11.5" cy="11.5" rx="11.5" ry="11.5"/>
<ellipse id="ellipse6" fill="#A9A199" cx="11.5" cy="11.5" rx="10.5" ry="10.5"/>
<g id="g8" transform="translate(4,4)">
	<path id="path5230" fill="#FFFFFF" d="M5.3,4.4L6,9.5c0,0,0,1,1,1h1c1,0,1-1,1-1l0.7-5.1C9.7,3,7.5,3,7.5,3S5.3,3,5.3,4.4z M3.5,5
		C2,5,2,6,2,6l1,4h1.5c0.8,0,0.8-0.8,0.8-0.8L4.5,5H3.5z M1.5,7.5c0,0-0.6,0-1.1,0.4C0,8.4,0,8.8,0,8.8V11h0.9C2,11,2,10,2,10
		L1.5,7.5z"/>
	<path id="path5230-2" fill="#FFFFFF" d="M11.5,5C13,5,13,6,13,6l-1,4h-1.5c-0.8,0-0.8-0.8-0.8-0.8L10.5,5H11.5z M13.5,7.5
		c0,0,0.6,0,1.1,0.4C15,8.4,15,8.8,15,8.8V11h-0.9C13,11,13,10,13,10L13.5,7.5z"/>
</g>
</svg>
